X:1
T:Title
%%score ( 1 2 ) { 3 | 4 }
L:1/8
Q:1/4=110
M:3/4
K:G
V:1 treble nm="Grand Piano, Soprano"
V:2 treble 
V:3 treble nm="Choir Pad, Beautiful Mansions"
V:4 bass 
V:1
 [GB]2 [FA]2 [DG]2 | [CE][EG]- [EG]2- [EG]/ z/ z | [DF]2 [DG]2 [DA]2 | [DB]4 z2 | %4
w: By~William~Batchelder~Bradbury * *||||
 [GB]2 [FA]2 [DG]2 | [CE][EG]- [EG]2- [EG]/ z/ z | [DF]2 [DG]2 [DA]2 | [DG]4 z2 | %8
w: ||||
 [GB]2 [FA]2 [DG]2 | [CE][EG]- [EG]2- [EG]/ z/ z | [DF]2 [DG]2 [DA]2 | [DB]4 z2 | %12
w: ||||
 [GB]2 [FA]2 [DG]2 | [CE][EG]- [EG]2- [EG]/ z/ z | [DF]2 [DG]2 [DA]2 | [DG]4 z2 | z2 z2 .e2 | %17
w: |||||
 [Gd]2 G2 [Gd]2 | z2 z2 .e2 | .d2 .e2 z2 | [GB]2 [FA]2 [DG]2 | [CE][EG]- [EG]2- [EG]/ z/ z | %22
w: |||||
 [DF]2 [DG]2 [DA]2 | [DG]6- | [DG]2 z2 z2 |] %25
w: |||
V:2
 x6 | x6 | x6 | x6 | x6 | x6 | x6 | x6 | x6 | x6 | x6 | x6 | x6 | x6 | x6 | x6 | %16
 [Fd]2 [FA]2 F-[Fd] | x6 | [Fd][Fd] [Fd]2 F-[Fd] | G-[GB] G-[Gd] [Ac][FA] | x6 | x6 | x6 | x6 | %24
 x6 |] %25
V:3
 D2 C2 B,2 | G,C- C2- C/ z/ z | A,2 B,2 C2 | B,4 z2 | D2 C2 B,2 | G,C- C2- C/ z/ z | A,2 B,2 C2 | %7
 B,4 z2 | D2 C2 B,2 | G,C- C2- C/ z/ z | A,2 B,2 C2 | B,4 z2 | D2 C2 B,2 | G,C- C2- C/ z/ z | %14
 A,2 B,2 C2 | B,4 z2 | A,2 D2 C2 | B,2 B,2 B,2 | CC C2 C2 | B,D CB, D2 | D2 C2 B,2 | %21
 G,C- C2- C/ z/ z | A,2 B,2 C2 | B,6- | B,2 z2 z2 |] %25
V:4
 G,,2 A,,2 B,,2 | C,C,- C,2- C,/ z/ z | D,2 D,2 D,2 | G,4 z2 | G,,2 A,,2 B,,2 | %5
 C,C,- C,2- C,/ z/ z | D,2 D,2 D,2 | G,,4 z2 | G,,2 A,,2 B,,2 | C,C,- C,2- C,/ z/ z | D,2 D,2 D,2 | %11
 G,4 z2 | G,,2 A,,2 B,,2 | C,C,- C,2- C,/ z/ z | D,2 D,2 D,2 | G,,4 z2 | D,2 D,2 D,2 | %17
 G,2 G,2 G,2 | D,D, D,2 D,2 | G,2 G,2 D,2 | G,,2 A,,2 B,,2 | C,C,- C,2- C,/ z/ z | D,2 D,2 D,2 | %23
 G,,6- | G,,2 z2 z2 |] %25

